!!!OTL: Der Bauer ins Holz
!!!ARE: Europa, Mitteleuropa, Deutschland
!!!SCT: A0472B
!!!YEM: Copyright 1995, estate of Helmut Schaffrath.
**kern
*ICvox
*Ivox
*M4/4
*k[f#c#]
*D:
{4d
=1
4d
4d
4a
4b
=2
2ccn
4b}
{4a
=3
4dd
4a
4a
4fn
=4
4e
4e
2e
=5
4r}
{4d
4d
4d
=6
4a
4b
2ccn
=7
4b}
{4a
4a
4g
=8
4fn
4e
4d
4d
=9
2.d}
==
!!!AGN: Romanze, Ballade, Lied
!! Werlin 1646.
!!!ONB: ESAC (Essen Associative Code) Database: ALTDEU
!!!AMT: simple quadruple
!!!AIN: vox
!!!EED: Helmut Schaffrath
!!!EEV: 1.0
*-
